packages/foundations/assets/icons/functional/images/transportation/electric_scooter_28_inverted.svg

<svg width="28" height="28" viewBox="0 0 28 28" fill="none" xmlns="http://www.w3.org/2000/svg">
<g clip-path="url(#clip0_2214_6796)">
<path fill-rule="evenodd" clip-rule="evenodd" d="M23.473 4.56541L21.582 4.95823C20.5324 5.17626 19.8343 6.16005 19.9577 7.20965L21.251 14.3296C19.8048 15.1365 18.6209 16.0658 17.8205 16.9614C17.0915 17.777 16.7332 18.8692 16.7248 20.2122L7.72779 20.2122C7.57465 18.7371 6.32802 17.5874 4.81235 17.5874C3.19383 17.5874 1.88128 18.8997 1.88128 20.5186C1.88128 22.1375 3.19383 23.4499 4.81235 23.4499C6.01085 23.4499 7.04113 22.7309 7.49555 21.7007C13.6006 21.7007 16.9355 21.7004 17.5 21.6999C17.7483 21.7007 18.2879 21.495 18.2409 20.8911C18.1232 19.5499 18.3645 18.585 18.9296 17.9527C19.5504 17.258 20.4198 16.5677 21.538 15.887L21.9099 17.8797C20.9311 18.3545 20.2561 19.3577 20.2561 20.5186C20.2561 22.1375 21.5688 23.4499 23.1873 23.4499C24.8065 23.4499 26.1188 22.1378 26.1188 20.5186C26.1188 18.9606 24.9036 17.6868 23.3692 17.5929L21.441 7.07533C21.3897 6.79877 21.5479 6.53103 21.8046 6.43735L23.7756 6.02182C24.1777 5.93827 24.436 5.54452 24.3525 5.14234C24.2754 4.77111 23.8926 4.47912 23.473 4.56541ZM23.1873 19.0749C23.985 19.0749 24.6311 19.721 24.6311 20.5186C24.6311 21.3162 23.985 21.9624 23.1873 21.9624C22.3903 21.9624 21.7436 21.3159 21.7436 20.5186C21.7436 19.7213 22.3903 19.0749 23.1873 19.0749ZM4.81235 19.0749C5.60996 19.0749 6.2561 19.721 6.2561 20.5186C6.2561 21.3162 5.60996 21.9624 4.81235 21.9624C4.01526 21.9624 3.3686 21.3159 3.3686 20.5186C3.3686 19.7213 4.01526 19.0749 4.81235 19.0749ZM3.50037 14.0874C3.08961 14.0874 2.75662 14.4204 2.75662 14.8312C2.75662 15.2419 3.08961 15.5749 3.50037 15.5749C6.21023 15.5749 7.39763 16.111 8.06369 17.7379C8.21932 18.1181 8.65364 18.3001 9.03378 18.1445C9.41392 17.9888 9.59592 17.5545 9.44029 17.1744C8.50024 14.8782 6.74884 14.0874 3.50037 14.0874Z" fill="#1A1C1F"/>
</g>
<defs>
<clipPath id="clip0_2214_6796">
<rect width="28" height="28" fill="white"/>
</clipPath>
</defs>
</svg>

<svg xmlns="http://www.w3.org/2000/svg" width="28" height="28" fill="none"><g clip-path="url(#a)"><path fill="#1A1C1F" fill-rule="evenodd" d="m23.473 4.565-1.891.393a2.056 2.056 0 0 0-1.624 2.252l1.293 7.12c-1.446.806-2.63 1.736-3.43 2.631-.73.816-1.088 1.908-1.096 3.251H7.728a2.931 2.931 0 1 0-.232 1.489L17.5 21.7c.248 0 .788-.205.74-.809-.117-1.341.125-2.306.69-2.938q.93-1.044 2.608-2.066l.372 1.993a2.932 2.932 0 1 0 1.46-.287L21.44 7.075a.57.57 0 0 1 .364-.638l1.97-.415a.744.744 0 0 0 .578-.88.753.753 0 0 0-.88-.577m-.286 14.51a1.443 1.443 0 1 1 .001 2.887 1.443 1.443 0 0 1 0-2.887m-18.375 0a1.443 1.443 0 1 1 .001 2.887 1.443 1.443 0 0 1 0-2.887M3.5 14.087a.744.744 0 0 0 0 1.488c2.71 0 3.898.536 4.564 2.163a.744.744 0 1 0 1.376-.564c-.94-2.296-2.691-3.087-5.94-3.087" clip-rule="evenodd"/></g><defs><clipPath id="a"><path fill="#fff" d="M0 0h28v28H0z"/></clipPath></defs></svg>
